docs/assets/img/icon/diana.svg

<svg xmlns="http://www.w3.org/2000/svg" xmlns:xlink="http://www.w3.org/1999/xlink" viewBox="0 0 32 32" version="1.1">
<g id="surface1">
<path style=" " d="M 16 3 C 8.832031 3 3 8.832031 3 16 C 3 23.167969 8.832031 29 16 29 C 23.167969 29 29 23.167969 29 16 C 29 13.5 28.289063 11.171875 27.0625 9.1875 L 25.59375 10.65625 C 26.484375 12.242188 27 14.054688 27 16 C 27 22.066406 22.066406 27 16 27 C 9.933594 27 5 22.066406 5 16 C 5 9.933594 9.933594 5 16 5 C 17.945313 5 19.757813 5.515625 21.34375 6.40625 L 22.8125 4.9375 C 20.828125 3.710938 18.5 3 16 3 Z M 27.28125 3.28125 L 15.28125 15.28125 C 15.101563 15.460938 15 15.722656 15 16 C 15 16.550781 15.449219 17 16 17 C 16.277344 17 16.539063 16.898438 16.71875 16.71875 L 28.71875 4.71875 Z M 16 7 C 11.039063 7 7 11.039063 7 16 C 7 20.960938 11.039063 25 16 25 C 20.960938 25 25 20.960938 25 16 C 25 14.613281 24.6875 13.300781 24.125 12.125 L 22.59375 13.65625 C 22.855469 14.390625 23 15.175781 23 16 C 23 19.859375 19.859375 23 16 23 C 12.140625 23 9 19.859375 9 16 C 9 12.140625 12.140625 9 16 9 C 16.824219 9 17.609375 9.144531 18.34375 9.40625 L 19.875 7.875 C 18.699219 7.3125 17.386719 7 16 7 Z M 16 11 C 13.242188 11 11 13.242188 11 16 C 11 18.757813 13.242188 21 16 21 C 18.757813 21 21 18.757813 21 16 C 21 15.765625 20.96875 15.539063 20.9375 15.3125 L 18.125 18.125 C 17.859375 18.390625 17.550781 18.601563 17.21875 18.75 C 17.203125 18.757813 17.171875 18.742188 17.15625 18.75 C 17.007813 18.8125 16.875 18.867188 16.71875 18.90625 C 16.683594 18.914063 16.628906 18.929688 16.59375 18.9375 C 16.398438 18.976563 16.203125 19 16 19 C 15.585938 19 15.203125 18.902344 14.84375 18.75 C 13.769531 18.292969 13 17.242188 13 16 C 13 15.796875 13.023438 15.601563 13.0625 15.40625 C 13.070313 15.371094 13.085938 15.316406 13.09375 15.28125 C 13.132813 15.125 13.1875 14.992188 13.25 14.84375 C 13.257813 14.828125 13.242188 14.796875 13.25 14.78125 C 13.398438 14.445313 13.609375 14.140625 13.875 13.875 L 16.6875 11.0625 C 16.460938 11.03125 16.234375 11 16 11 Z "></path>
</g>
</svg>

<svg xmlns="http://www.w3.org/2000/svg" viewBox="0 0 32 32"><path d="M16 3C8.832 3 3 8.832 3 16s5.832 13 13 13 13-5.832 13-13c0-2.5-.71-4.828-1.938-6.813l-1.468 1.47A10.858 10.858 0 0 1 27 16c0 6.066-4.934 11-11 11S5 22.066 5 16 9.934 5 16 5c1.945 0 3.758.516 5.344 1.406l1.468-1.468A12.904 12.904 0 0 0 16 3zm11.281.281l-12 12c-.18.18-.281.442-.281.719 0 .55.45 1 1 1 .277 0 .54-.102.719-.281l12-12zM16 7c-4.96 0-9 4.04-9 9s4.04 9 9 9 9-4.04 9-9c0-1.387-.313-2.7-.875-3.875l-1.531 1.531c.261.735.406 1.52.406 2.344 0 3.86-3.14 7-7 7s-7-3.14-7-7 3.14-7 7-7c.824 0 1.61.145 2.344.406l1.531-1.531A8.948 8.948 0 0 0 16 7zm0 4c-2.758 0-5 2.242-5 5s2.242 5 5 5 5-2.242 5-5c0-.234-.031-.46-.063-.688l-2.812 2.813a3.036 3.036 0 0 1-.906.625c-.016.008-.047-.008-.063 0a2.917 2.917 0 0 1-.437.156l-.125.032c-.196.039-.39.062-.594.062-.414 0-.797-.098-1.156-.25C13.77 18.293 13 17.242 13 16c0-.203.023-.398.063-.594.007-.035.023-.09.03-.125.04-.156.095-.289.157-.437.008-.016-.008-.047 0-.063.148-.336.36-.64.625-.906l2.813-2.813A4.997 4.997 0 0 0 16 11z"/></svg>
